flaticon/essential/umbrella.svg

<svg xmlns="http://www.w3.org/2000/svg" width="32" height="32" viewBox="0 0 24 24">
    <path d="M 21.980469 11.300781 C 21.988281 11.273438 21.996094 11.246094 21.996094 11.21875 C 21.996094 11.210938 22 11.207031 22 11.199219 C 22 5.820312 17.730469 1.421875 12.398438 1.210938 L 12.398438 0.398438 C 12.398438 0.179688 12.222656 0 12 0 C 11.777344 0 11.601562 0.179688 11.601562 0.398438 L 11.601562 1.210938 C 6.269531 1.421875 2 5.820312 2 11.199219 C 2 11.207031 2.003906 11.210938 2.003906 11.21875 C 2.003906 11.246094 2.011719 11.273438 2.019531 11.300781 C 2.027344 11.324219 2.03125 11.347656 2.039062 11.371094 C 2.050781 11.390625 2.066406 11.410156 2.078125 11.425781 C 2.097656 11.453125 2.113281 11.476562 2.132812 11.496094 C 2.136719 11.5 2.140625 11.503906 2.144531 11.507812 C 2.160156 11.519531 2.175781 11.523438 2.191406 11.535156 C 2.214844 11.546875 2.238281 11.5625 2.265625 11.574219 C 2.292969 11.582031 2.320312 11.585938 2.351562 11.589844 C 2.367188 11.59375 2.382812 11.601562 2.398438 11.601562 C 2.40625 11.601562 2.410156 11.597656 2.417969 11.597656 C 2.445312 11.59375 2.476562 11.585938 2.503906 11.578125 C 2.527344 11.574219 2.546875 11.570312 2.566406 11.558594 C 2.589844 11.550781 2.609375 11.53125 2.628906 11.519531 C 2.652344 11.503906 2.675781 11.488281 2.691406 11.46875 C 2.699219 11.460938 2.703125 11.460938 2.707031 11.457031 C 3.273438 10.773438 4.015625 10.398438 4.800781 10.398438 C 5.585938 10.398438 6.328125 10.773438 6.890625 11.457031 C 6.898438 11.464844 6.910156 11.46875 6.917969 11.476562 C 6.929688 11.488281 6.933594 11.5 6.945312 11.507812 C 6.960938 11.519531 6.980469 11.527344 6.996094 11.535156 C 7.015625 11.546875 7.035156 11.5625 7.058594 11.570312 C 7.089844 11.582031 7.125 11.585938 7.15625 11.589844 C 7.171875 11.59375 7.1875 11.601562 7.199219 11.601562 C 7.207031 11.601562 7.210938 11.597656 7.21875 11.597656 C 7.238281 11.597656 7.257812 11.589844 7.277344 11.585938 C 7.304688 11.582031 7.332031 11.574219 7.359375 11.5625 C 7.378906 11.554688 7.394531 11.542969 7.414062 11.53125 C 7.425781 11.523438 7.441406 11.519531 7.453125 11.507812 C 7.464844 11.5 7.46875 11.488281 7.476562 11.480469 C 7.488281 11.46875 7.5 11.464844 7.507812 11.457031 C 8.070312 10.773438 8.816406 10.398438 9.601562 10.398438 C 10.34375 10.398438 11.046875 10.738281 11.601562 11.355469 L 11.601562 22 C 11.601562 22.660156 11.0625 23.199219 10.398438 23.199219 C 9.738281 23.199219 9.199219 22.660156 9.199219 22 C 9.199219 21.777344 9.019531 21.601562 8.800781 21.601562 C 8.578125 21.601562 8.398438 21.777344 8.398438 22 C 8.398438 23.101562 9.296875 24 10.398438 24 C 11.503906 24 12.398438 23.101562 12.398438 22 L 12.398438 11.355469 C 12.953125 10.738281 13.65625 10.398438 14.398438 10.398438 C 15.183594 10.398438 15.929688 10.773438 16.492188 11.457031 C 16.5 11.464844 16.511719 11.46875 16.519531 11.476562 C 16.527344 11.488281 16.535156 11.5 16.542969 11.507812 C 16.5625 11.519531 16.578125 11.527344 16.597656 11.535156 C 16.617188 11.546875 16.636719 11.5625 16.65625 11.570312 C 16.691406 11.582031 16.722656 11.585938 16.757812 11.589844 C 16.773438 11.59375 16.785156 11.601562 16.800781 11.601562 C 16.804688 11.601562 16.8125 11.597656 16.820312 11.597656 C 16.839844 11.597656 16.859375 11.589844 16.878906 11.585938 C 16.90625 11.582031 16.929688 11.574219 16.957031 11.5625 C 16.976562 11.554688 16.996094 11.542969 17.015625 11.53125 C 17.027344 11.523438 17.042969 11.519531 17.054688 11.507812 C 17.0625 11.5 17.070312 11.488281 17.078125 11.480469 C 17.085938 11.472656 17.097656 11.464844 17.109375 11.457031 C 17.671875 10.773438 18.414062 10.398438 19.199219 10.398438 C 19.984375 10.398438 20.726562 10.773438 21.292969 11.457031 C 21.296875 11.460938 21.300781 11.460938 21.304688 11.464844 C 21.335938 11.496094 21.367188 11.519531 21.402344 11.542969 C 21.417969 11.546875 21.425781 11.558594 21.4375 11.566406 C 21.488281 11.585938 21.542969 11.601562 21.601562 11.601562 C 21.648438 11.601562 21.699219 11.589844 21.746094 11.570312 C 21.761719 11.5625 21.777344 11.550781 21.792969 11.542969 C 21.8125 11.53125 21.835938 11.523438 21.855469 11.507812 C 21.859375 11.503906 21.863281 11.496094 21.867188 11.492188 C 21.886719 11.472656 21.902344 11.449219 21.921875 11.425781 C 21.933594 11.40625 21.949219 11.390625 21.960938 11.367188 C 21.96875 11.347656 21.972656 11.324219 21.980469 11.300781 Z M 19.199219 9.601562 C 18.3125 9.601562 17.476562 9.957031 16.800781 10.613281 C 16.125 9.957031 15.289062 9.601562 14.398438 9.601562 C 13.511719 9.601562 12.675781 9.957031 12 10.613281 C 11.324219 9.957031 10.488281 9.601562 9.601562 9.601562 C 8.710938 9.601562 7.875 9.957031 7.199219 10.613281 C 6.523438 9.957031 5.6875 9.601562 4.800781 9.601562 C 4.101562 9.601562 3.433594 9.828125 2.851562 10.242188 C 3.332031 5.617188 7.25 2 12 2 C 16.75 2 20.667969 5.617188 21.148438 10.242188 C 20.566406 9.828125 19.898438 9.601562 19.199219 9.601562 Z M 19.199219 9.601562"/>
</svg>

<svg xmlns="http://www.w3.org/2000/svg" width="32" height="32" viewBox="0 0 24 24">
    <path d="M21.98 11.3c.008-.027.016-.054.016-.081 0-.008.004-.012.004-.02 0-5.379-4.27-9.777-9.602-9.988V.398a.398.398 0 1 0-.796 0v.813C6.27 1.42 2 5.82 2 11.199c0 .008.004.012.004.02 0 .027.008.054.016.082.007.023.011.047.02.07.01.02.026.04.038.055.02.027.035.05.055.07l.012.012c.015.012.03.015.046.027.024.012.047.027.075.04a.56.56 0 0 0 .086.015c.015.004.03.012.046.012.008 0 .012-.004.02-.004a.68.68 0 0 0 .086-.02.167.167 0 0 0 .062-.02c.024-.007.043-.027.063-.038a.273.273 0 0 0 .062-.051c.008-.008.012-.008.016-.012.566-.684 1.309-1.059 2.094-1.059.785 0 1.527.375 2.09 1.059.007.008.02.012.027.02.012.011.016.023.027.03.016.013.035.02.051.028.02.012.04.027.063.035.03.012.066.016.097.02.016.004.032.012.043.012.008 0 .012-.004.02-.004.02 0 .039-.008.058-.012a.324.324 0 0 0 .082-.024c.02-.007.036-.019.055-.03.012-.009.027-.012.04-.024.01-.008.015-.02.023-.028.011-.011.023-.015.03-.023.563-.684 1.31-1.059 2.095-1.059.742 0 1.445.34 2 .957V22A1.202 1.202 0 0 1 9.2 22a.398.398 0 0 0-.4-.398.398.398 0 0 0-.402.398c0 1.102.899 2 2 2 1.106 0 2-.898 2-2V11.355c.555-.617 1.258-.957 2-.957.786 0 1.532.375 2.094 1.059.008.008.02.012.028.02.007.011.015.023.023.03.02.013.035.02.055.028.02.012.039.027.058.035a.466.466 0 0 0 .102.02c.015.004.027.012.043.012.004 0 .012-.004.02-.004.019 0 .038-.008.058-.012a.427.427 0 0 0 .137-.055c.011-.008.027-.011.039-.023.008-.008.015-.02.023-.028l.031-.023c.563-.684 1.305-1.059 2.09-1.059.785 0 1.528.375 2.094 1.059.004.004.008.004.012.008a.612.612 0 0 0 .097.078c.016.004.024.016.035.023.051.02.106.036.165.036a.385.385 0 0 0 .144-.032c.016-.008.031-.02.047-.027.02-.012.043-.02.062-.035l.012-.016c.02-.02.035-.043.055-.066.012-.02.027-.035.039-.059.008-.02.012-.043.02-.066zM19.2 9.603c-.887 0-1.723.355-2.4 1.011-.675-.656-1.51-1.011-2.402-1.011-.886 0-1.722.355-2.398 1.011-.676-.656-1.512-1.011-2.398-1.011-.891 0-1.727.355-2.403 1.011-.676-.656-1.511-1.011-2.398-1.011-.7 0-1.367.226-1.95.64C3.333 5.617 7.25 2 12 2c4.75 0 8.668 3.617 9.148 8.242a3.344 3.344 0 0 0-1.949-.64zm0 0"/>
</svg>
